static/img/kroki/f33213c21bacf2e5574cf050e5f39702.svg

<?xml version="1.0" encoding="us-ascii" standalone="no"?><svg xmlns="http://www.w3.org/2000/svg" xmlns:xlink="http://www.w3.org/1999/xlink" contentStyleType="text/css" height="252px" preserveAspectRatio="none" style="width:388px;height:252px;" version="1.1" viewBox="0 0 388 252" width="388px" zoomAndPan="magnify"><defs/><g><!--class azure_sql_server--><g id="elem_azure_sql_server"><rect codeLine="23" fill="#3D176E" height="39.7891" id="azure_sql_server" rx="2.5" ry="2.5" style="stroke:#000D19;stroke-width:0.5;" width="181" x="49" y="7"/><ellipse cx="64" cy="26.8945" fill="#ADD1B2" rx="11" ry="11" style="stroke:#181818;stroke-width:1.0;"/><path d="M66.9688,32.5352 Q66.3906,32.832 65.75,32.9727 Q65.1094,33.1289 64.4063,33.1289 Q61.9063,33.1289 60.5781,31.4883 Q59.2656,29.832 59.2656,26.707 Q59.2656,23.582 60.5781,21.9258 Q61.9063,20.2695 64.4063,20.2695 Q65.1094,20.2695 65.75,20.4258 Q66.4063,20.582 66.9688,20.8789 L66.9688,23.5977 Q66.3438,23.0195 65.75,22.7539 Q65.1563,22.4727 64.5313,22.4727 Q63.1875,22.4727 62.5,23.5508 Q61.8125,24.6133 61.8125,26.707 Q61.8125,28.8008 62.5,29.8789 Q63.1875,30.9414 64.5313,30.9414 Q65.1563,30.9414 65.75,30.6758 Q66.3438,30.3945 66.9688,29.8164 L66.9688,32.5352 Z " fill="#000000"/><text fill="#D9B8FF" font-family="Helvetica" font-size="17" lengthAdjust="spacing" textLength="139" x="83" y="32.7798">azure_sql_server</text></g><!--class azure_sql_server_database--><g id="elem_azure_sql_server_database"><rect codeLine="26" fill="#3D176E" height="39.7891" id="azure_sql_server_database" rx="2.5" ry="2.5" style="stroke:#000D19;stroke-width:0.5;" width="265" x="7" y="206.58"/><ellipse cx="22" cy="226.4745" fill="#ADD1B2" rx="11" ry="11" style="stroke:#181818;stroke-width:1.0;"/><path d="M24.9688,232.1152 Q24.3906,232.412 23.75,232.5527 Q23.1094,232.7089 22.4063,232.7089 Q19.9063,232.7089 18.5781,231.0683 Q17.2656,229.412 17.2656,226.287 Q17.2656,223.162 18.5781,221.5058 Q19.9063,219.8495 22.4063,219.8495 Q23.1094,219.8495 23.75,220.0058 Q24.4063,220.162 24.9688,220.4589 L24.9688,223.1777 Q24.3438,222.5995 23.75,222.3339 Q23.1563,222.0527 22.5313,222.0527 Q21.1875,222.0527 20.5,223.1308 Q19.8125,224.1933 19.8125,226.287 Q19.8125,228.3808 20.5,229.4589 Q21.1875,230.5214 22.5313,230.5214 Q23.1563,230.5214 23.75,230.2558 Q24.3438,229.9745 24.9688,229.3964 L24.9688,232.1152 Z " fill="#000000"/><text fill="#D9B8FF" font-family="Helvetica" font-size="17" lengthAdjust="spacing" textLength="223" x="41" y="232.3598">azure_sql_server_database</text></g><!--class azure_sql_server_elastic_pool--><g id="elem_azure_sql_server_elastic_pool"><rect codeLine="29" fill="#3D176E" height="39.7891" id="azure_sql_server_elastic_pool" rx="2.5" ry="2.5" style="stroke:#000D19;stroke-width:0.5;" width="287" x="94" y="106.79"/><ellipse cx="109" cy="126.6845" fill="#ADD1B2" rx="11" ry="11" style="stroke:#181818;stroke-width:1.0;"/><path d="M111.9688,132.3252 Q111.3906,132.622 110.75,132.7627 Q110.1094,132.9189 109.4063,132.9189 Q106.9063,132.9189 105.5781,131.2783 Q104.2656,129.622 104.2656,126.497 Q104.2656,123.372 105.5781,121.7158 Q106.9063,120.0595 109.4063,120.0595 Q110.1094,120.0595 110.75,120.2158 Q111.4063,120.372 111.9688,120.6689 L111.9688,123.3877 Q111.3438,122.8095 110.75,122.5439 Q110.1563,122.2627 109.5313,122.2627 Q108.1875,122.2627 107.5,123.3408 Q106.8125,124.4033 106.8125,126.497 Q106.8125,128.5908 107.5,129.6689 Q108.1875,130.7314 109.5313,130.7314 Q110.1563,130.7314 110.75,130.4658 Q111.3438,130.1845 111.9688,129.6064 L111.9688,132.3252 Z " fill="#000000"/><text fill="#D9B8FF" font-family="Helvetica" font-size="17" lengthAdjust="spacing" textLength="245" x="128" y="132.5698">azure_sql_server_elastic_pool</text></g><!--link azure_sql_server to azure_sql_server_database--><g id="link_azure_sql_server_azure_sql_server_database"><path codeLine="32" d="M117.73,47.23 C102.95,61.9 84.67,83.47 76.5,106.79 C70.65,123.48 70.65,129.89 76.5,146.58 C84.67,169.91 98.6915,187.2432 113.4715,201.9132 " fill="none" id="azure_sql_server-to-azure_sql_server_database" style="stroke:#1A83AF;stroke-width:2.0;"/><polygon fill="#1A83AF" points="117.73,206.14,114.1602,196.9609,114.1813,202.6177,108.5245,202.6388,117.73,206.14" style="stroke:#1A83AF;stroke-width:2.0;"/></g><!--link azure_sql_server to azure_sql_server_elastic_pool--><g id="link_azure_sql_server_azure_sql_server_elastic_pool"><path codeLine="33" d="M158.86,47.22 C176.04,64.36 196.7637,85.0311 213.9337,102.1711 " fill="none" id="azure_sql_server-to-azure_sql_server_elastic_pool" style="stroke:#1A83AF;stroke-width:2.0;"/><polygon fill="#1A83AF" points="218.18,106.41,214.6364,97.2207,214.6414,102.8776,208.9845,102.8825,218.18,106.41" style="stroke:#1A83AF;stroke-width:2.0;"/></g><!--link azure_sql_server_elastic_pool to azure_sql_server_database--><g id="link_azure_sql_server_elastic_pool_azure_sql_server_database"><path codeLine="34" d="M218.14,147.01 C200.96,164.15 180.2363,184.8211 163.0663,201.9611 " fill="none" id="azure_sql_server_elastic_pool-to-azure_sql_server_database" style="stroke:#1A83AF;stroke-width:2.0;"/><polygon fill="#1A83AF" points="158.82,206.2,168.0155,202.6725,162.3586,202.6676,162.3636,197.0107,158.82,206.2" style="stroke:#1A83AF;stroke-width:2.0;"/></g><!--SRC=[bP31JeD048RlFCKcd9iK6wMzc219evV6M6_6a86TBPl2BiukRLhZkmjMpGf2zJh_j_j_CxdaoB2ix86LMAP8nZDRgIeWA5b4fFUnBZGnNmWGix0RBhMoPu4LbCXkiTYXbHbqYSTSPbk5nh0B9xg1RBiXNIj- -juIADD4gAn3nGKO4rbBCgqjEZ9yaSw5w9BTJ_qP3y8hx66QED8dCfrEUR3e8cUhHlV-9jRoY2nmZxRI5dkQlOeFQjIo9Hp9tg9V-Q3ZFN0krOPTEhE7anCff1_pTGvSxrjQG67S6cEHKDj3XN5lArpCkGX_XU-6O2zhJyVWM1CcvgL83DAkiNdrlBU1BE5W8GM3en0su-O2IQLrSG9x7PCdFuZcisZvFBaURldlExVO6zVwey0x]--></g></svg>

<svg xmlns="http://www.w3.org/2000/svg" width="388" height="252" viewBox="0 0 388 252"><rect width="181" height="39.789" x="49" y="7" fill="#3D176E" rx="2.5" ry="2.5" style="stroke:#000d19;stroke-width:.5"/><circle cx="64" cy="26.895" r="11" fill="#ADD1B2" style="stroke:#181818;stroke-width:1"/><path d="M66.969 32.535q-.578.297-1.219.438-.64.156-1.344.156-2.5 0-3.828-1.64-1.312-1.657-1.312-4.782t1.312-4.781q1.328-1.656 3.828-1.656.703 0 1.344.156.656.156 1.219.453v2.719q-.625-.578-1.219-.844-.594-.281-1.219-.281-1.344 0-2.031 1.078-.687 1.062-.687 3.156t.687 3.172q.688 1.062 2.031 1.062.625 0 1.219-.265.594-.281 1.219-.86z"/><text x="83" y="32.78" fill="#D9B8FF" font-family="Helvetica" font-size="17" textLength="139">azure_sql_server</text><rect width="265" height="39.789" x="7" y="206.58" fill="#3D176E" rx="2.5" ry="2.5" style="stroke:#000d19;stroke-width:.5"/><circle cx="22" cy="226.475" r="11" fill="#ADD1B2" style="stroke:#181818;stroke-width:1"/><path d="M24.969 232.115q-.578.297-1.219.438-.64.156-1.344.156-2.5 0-3.828-1.64-1.312-1.657-1.312-4.782t1.312-4.781q1.328-1.656 3.828-1.656.703 0 1.344.156.656.156 1.219.453v2.719q-.625-.578-1.219-.844-.594-.281-1.219-.281-1.343 0-2.031 1.078-.687 1.062-.687 3.156t.687 3.172q.688 1.062 2.031 1.062.625 0 1.219-.265.594-.281 1.219-.86z"/><text x="41" y="232.36" fill="#D9B8FF" font-family="Helvetica" font-size="17" textLength="223">azure_sql_server_database</text><rect width="287" height="39.789" x="94" y="106.79" fill="#3D176E" rx="2.5" ry="2.5" style="stroke:#000d19;stroke-width:.5"/><circle cx="109" cy="126.684" r="11" fill="#ADD1B2" style="stroke:#181818;stroke-width:1"/><path d="M111.969 132.325q-.578.297-1.219.438-.64.156-1.344.156-2.5 0-3.828-1.64-1.312-1.657-1.312-4.782t1.312-4.781q1.328-1.656 3.828-1.656.703 0 1.344.156.656.156 1.219.453v2.719q-.625-.579-1.219-.844-.594-.281-1.219-.281-1.344 0-2.031 1.078-.687 1.062-.687 3.156t.687 3.172q.688 1.062 2.031 1.062.625 0 1.219-.265.594-.281 1.219-.86z"/><text x="128" y="132.57" fill="#D9B8FF" font-family="Helvetica" font-size="17" textLength="245">azure_sql_server_elastic_pool</text><path fill="none" d="M117.73 47.23C102.95 61.9 84.67 83.47 76.5 106.79c-5.85 16.69-5.85 23.1 0 39.79 8.17 23.33 22.192 40.663 36.972 55.333" style="stroke:#1a83af;stroke-width:2"/><path fill="#1A83AF" d="m117.73 206.14-3.57-9.18.021 5.658-5.656.02z" style="stroke:#1a83af;stroke-width:2"/><path fill="none" d="M158.86 47.22c17.18 17.14 37.904 37.811 55.074 54.951" style="stroke:#1a83af;stroke-width:2"/><path fill="#1A83AF" d="m218.18 106.41-3.544-9.19.005 5.658-5.656.004z" style="stroke:#1a83af;stroke-width:2"/><path fill="none" d="M218.14 147.01c-17.18 17.14-37.904 37.811-55.074 54.951" style="stroke:#1a83af;stroke-width:2"/><path fill="#1A83AF" d="m158.82 206.2 9.196-3.527-5.657-.005.005-5.657z" style="stroke:#1a83af;stroke-width:2"/></svg>
